X:1
T:White Star -- Reel
R:reel
N:313
B:Ryan's Mammoth Collection
Z:Contributed by Ray Davies,  ray:davies99.freeserve.co.uk
M:2/4
L:1/16
K:G
v(3DDDu(ED) GBGB | AAGA BGcG | EcGc BGdB | AdBG AGEG |
v(3DDDu(ED) GBGB | AAGA BGcG | \
EcGc BGdB |1 AGFA .G2(FE) :|2 AGFA G2 z2||
|:"1"vGG"4"gG GgGg | "1"G"0"ABG AGED | v(3cccu(Ac) BGdB | AdBG AGEG |
"1"GGgG GgGg | "1"G"0"ABG "4"AGED | v(3cccu(Ac) BGdB | AGFA G2z2 :|
